tools/download-figma-icons/icons/solid/food.svg

<svg width="24" height="24" viewBox="0 0 24 24" fill="none" xmlns="http://www.w3.org/2000/svg">
<path fill-rule="evenodd" clip-rule="evenodd" d="M18.0021 5.18389C18.1963 5.18389 18.3898 5.10889 18.5361 4.96039C18.8271 4.66489 18.8241 4.18939 18.5286 3.89839L17.2611 2.64739C16.9648 2.35564 16.4901 2.36014 16.2006 2.65489C15.9096 2.95039 15.9126 3.42589 16.2081 3.71689L17.4756 4.96789C17.6218 5.11189 17.8116 5.18389 18.0021 5.18389ZM17.1126 8.3512C17.3016 8.3512 17.4906 8.27995 17.6376 8.13669C17.9331 7.8472 17.9376 7.37094 17.6474 7.0747L16.3544 5.75319C16.0641 5.45694 15.5894 5.45169 15.2939 5.74269C14.9976 6.03294 14.9931 6.50844 15.2834 6.8047L16.5771 8.12619C16.7234 8.27544 16.9184 8.3512 17.1126 8.3512ZM17.7801 0.0411572C18.6681 0.228657 19.3746 0.726657 19.8793 1.52091C21.6216 4.26516 20.2498 9.74991 20.2498 9.74991H13.4998V8.36616C13.4998 7.69491 13.2156 6.85641 12.7498 6.37491C13.2013 4.28391 13.8501 1.89516 15.3411 0.703407C16.0626 0.128157 16.8763 -0.0960928 17.7591 0.0374072C17.7647 0.0380304 17.7703 0.0391717 17.7764 0.0404004C17.7776 0.0406502 17.7788 0.0409037 17.7801 0.0411572ZM11.3013 6.59585L9.7503 5.24585V3.00035H10.5003C10.9008 3.00035 11.2503 2.6651 11.2503 2.25035C11.2503 1.83485 10.9008 1.50035 10.5003 1.50035H6.0003C5.59905 1.50035 5.2503 1.83485 5.2503 2.25035C5.2503 2.6651 5.59905 3.00035 6.0003 3.00035H6.7503V5.24885L5.19855 6.5996C4.74855 7.08035 4.5003 7.71559 4.5003 8.3876V9.3671V9.75035L12.0003 9.74285V9.36409V8.38385C12.0003 7.71185 11.7521 7.07735 11.3013 6.59585ZM16.5 21.7501C16.5 22.1626 16.1625 22.5001 15.75 22.5001C15.3375 22.5001 15 22.1626 15 21.7501V13.5001C15 13.0876 15.3375 12.7501 15.75 12.7501C16.1625 12.7501 16.5 13.0876 16.5 13.5001V21.7501ZM21.825 11.2501H2.175C1.8 11.2501 1.5 11.5876 1.5 12.0001V23.2501C1.5 23.6626 1.8 24.0001 2.175 24.0001H21.825C22.2 24.0001 22.5 23.6626 22.5 23.2501V12.0001C22.5 11.5876 22.2 11.2501 21.825 11.2501Z" fill="black"/>
</svg>

<svg xmlns="http://www.w3.org/2000/svg" width="24" height="24" fill="none" viewBox="0 0 24 24"><path fill="currentColor" fill-rule="evenodd" d="M18.002 5.184a.751.751 0 0 0 .527-1.285L17.26 2.646a.751.751 0 0 0-1.053 1.07l1.268 1.25a.75.75 0 0 0 .526.217m-.89 3.167a.75.75 0 0 0 .535-1.276l-1.293-1.322a.75.75 0 0 0-1.071 1.052l1.294 1.321a.75.75 0 0 0 .536.225M17.78.04c.888.188 1.595.686 2.1 1.48 1.742 2.744.37 8.229.37 8.229H13.5V8.366c0-.671-.284-1.51-.75-1.991.451-2.091 1.1-4.48 2.591-5.672.722-.575 1.535-.8 2.418-.666l.017.003zm-6.479 6.555-1.55-1.35V3h.75c.4 0 .75-.335.75-.75s-.35-.75-.75-.75H6a.76.76 0 0 0-.75.75c0 .415.348.75.75.75h.75v2.25L5.198 6.6A2.6 2.6 0 0 0 4.5 8.389V9.75l7.5-.007V8.384c0-.672-.248-1.307-.699-1.788M16.5 21.75c0 .413-.337.75-.75.75a.75.75 0 0 1-.75-.75V13.5c0-.412.338-.75.75-.75.413 0 .75.338.75.75zm5.325-10.5H2.175c-.375 0-.675.338-.675.75v11.25c0 .413.3.75.675.75h19.65c.375 0 .675-.337.675-.75V12c0-.412-.3-.75-.675-.75" clip-rule="evenodd"/></svg>
